prizma/img/banner-desktop.svg

<?xml version="1.0" encoding="iso-8859-1"?>
<!-- Generator: Adobe Illustrator 16.0.0, SVG Export Plug-In . SVG Version: 6.00 Build 0)  -->
<!DOCTYPE svg PUBLIC "-//W3C//DTD SVG 1.1//EN" "http://www.w3.org/Graphics/SVG/1.1/DTD/svg11.dtd">
<svg version="1.1" id="Capa_1" xmlns="http://www.w3.org/2000/svg" xmlns:xlink="http://www.w3.org/1999/xlink" x="0px" y="0px"
	 width="97.385px" height="97.385px" viewBox="0 0 97.385 97.385" style="enable-background:new 0 0 97.385 97.385;"
	 xml:space="preserve">
<g>
	<g>
		<path d="M97.265,71.261c-0.093-0.108-0.23-0.172-0.374-0.172H0.494c-0.144,0-0.28,0.063-0.374,0.172
			c-0.094,0.108-0.136,0.253-0.115,0.396c0.014,0.09,1.468,9.016,12.753,9.016h71.869c11.284,0,12.738-8.926,12.753-9.016
			C97.4,71.514,97.358,71.369,97.265,71.261z M55.942,77.547h-14.5v-3.334h14.5V77.547z"/>
		<path d="M10.507,67.619h76.37c1.104,0,2-0.896,2-2V18.713c0-1.104-0.896-2-2-2h-76.37c-1.104,0-2,0.896-2,2v46.906
			C8.507,66.723,9.403,67.619,10.507,67.619z M15.507,23.713h66.37v36.906h-66.37V23.713z"/>
	</g>
</g>
<g>
</g>
<g>
</g>
<g>
</g>
<g>
</g>
<g>
</g>
<g>
</g>
<g>
</g>
<g>
</g>
<g>
</g>
<g>
</g>
<g>
</g>
<g>
</g>
<g>
</g>
<g>
</g>
<g>
</g>
</svg>

<svg xmlns="http://www.w3.org/2000/svg" width="97.39" height="97.39">
  <path d="M97.27 71.26a.5.5 0 0 0-.38-.17H.5a.5.5 0 0 0-.49.57c.02.09 1.47 9.01 12.76 9.01h71.87c11.28 0 12.73-8.92 12.75-9.01a.5.5 0 0 0-.11-.4zm-41.33 6.29h-14.5V74.2h14.5v3.34zM10.5 67.62h76.38a2 2 0 0 0 2-2v-46.9a2 2 0 0 0-2-2H10.5a2 2 0 0 0-2 2v46.9c0 1.1.9 2 2 2zm5-43.9h66.38v36.9H15.5v-36.9z"/>
</svg>
